svg/color/be.svg

<?xml version="1.0" encoding="UTF-8" ?>
<!DOCTYPE svg PUBLIC "-//W3C//DTD SVG 1.1//EN" "http://www.w3.org/Graphics/SVG/1.1/DTD/svg11.dtd">
<svg width="250pt" height="250pt" viewBox="0 0 250 250" version="1.1" xmlns="http://www.w3.org/2000/svg">
<g id="#ffffffff">
<path fill="#ffffff" opacity="1.00" d=" M 0.00 0.00 L 250.00 0.00 L 250.00 250.00 L 0.00 250.00 L 0.00 0.00 M 111.34 8.07 C 102.68 9.12 94.09 10.91 85.87 13.86 C 54.42 24.44 28.26 49.38 15.97 80.18 C 2.89 111.72 4.99 148.91 21.06 178.98 C 34.21 203.68 56.52 223.49 82.80 233.21 C 92.16 236.66 101.88 239.81 111.97 239.74 C 122.23 239.81 132.54 240.21 142.77 239.27 C 170.81 234.97 196.87 219.71 214.68 197.67 C 227.42 182.21 235.84 163.28 239.25 143.58 C 240.20 131.44 239.95 119.20 239.50 107.04 C 238.04 93.98 233.25 81.45 227.40 69.76 C 213.89 44.01 190.43 23.55 162.91 14.03 C 146.49 8.03 128.68 6.35 111.34 8.07 Z" />
<path fill="#ffffff" opacity="1.00" d=" M 116.34 20.86 C 126.52 19.68 136.75 21.27 146.73 23.18 C 183.52 30.89 214.41 60.71 223.99 96.98 C 231.37 123.23 227.39 152.24 213.78 175.81 C 207.72 186.60 199.16 195.77 189.90 203.89 C 174.78 216.59 155.78 224.42 136.25 226.94 C 113.48 229.73 89.92 224.34 70.29 212.57 C 49.18 199.33 32.45 178.76 25.22 154.77 C 22.58 146.09 21.24 137.07 20.56 128.03 C 19.93 104.40 27.00 80.37 41.67 61.67 C 55.87 42.78 76.71 28.84 99.80 23.56 C 105.24 22.24 110.80 21.57 116.34 20.86 M 37.71 106.45 C 37.37 114.70 37.50 122.97 37.63 131.22 C 45.75 131.50 53.87 131.36 62.00 131.41 C 66.54 131.35 71.50 131.12 75.33 128.37 C 77.56 126.91 77.33 124.02 77.72 121.71 C 76.02 120.59 74.32 119.47 72.60 118.38 C 74.24 116.36 77.56 114.24 76.04 111.27 C 74.11 107.17 69.08 106.56 65.07 106.45 C 55.95 106.38 46.83 106.44 37.71 106.45 M 80.81 106.44 C 80.67 110.10 80.57 113.75 80.60 117.41 C 80.69 125.42 80.68 133.43 80.66 141.44 C 93.58 141.53 106.50 141.50 119.42 141.46 C 119.42 139.12 119.41 136.78 119.41 134.45 C 109.77 134.41 100.13 134.40 90.49 134.45 C 90.42 133.39 90.36 132.34 90.29 131.30 C 98.10 131.23 105.91 131.20 113.72 131.30 C 115.60 131.32 117.49 131.31 119.38 131.30 C 119.39 128.99 119.40 126.69 119.40 124.39 C 119.39 122.05 119.41 119.70 119.44 117.36 C 109.48 117.25 99.52 117.32 89.56 117.29 C 90.94 116.15 91.99 114.09 94.05 114.34 C 102.54 114.06 111.07 114.85 119.54 113.82 C 119.48 111.38 119.46 108.94 119.46 106.51 C 106.57 106.36 93.69 106.46 80.81 106.44 M 124.28 114.71 C 124.19 123.63 124.28 132.56 124.23 141.49 C 127.31 141.49 130.38 141.49 133.46 141.46 C 133.39 132.55 133.44 123.64 133.42 114.73 C 130.37 114.72 127.33 114.71 124.28 114.71 M 145.33 123.26 C 143.16 123.88 140.89 124.63 139.31 126.32 C 136.36 128.78 137.19 133.07 137.65 136.41 C 140.70 141.21 146.90 141.48 151.95 142.28 C 157.84 142.62 164.04 142.02 169.40 139.40 C 173.16 137.32 173.10 132.71 172.51 128.98 C 170.61 124.56 165.44 123.10 161.07 122.57 C 155.84 122.49 150.44 121.91 145.33 123.26 M 175.66 141.44 C 178.87 141.51 182.08 141.50 185.29 141.45 C 185.25 137.86 185.22 134.26 185.33 130.67 C 190.36 128.71 196.84 126.76 201.41 130.73 C 201.48 134.32 201.47 137.90 201.45 141.49 C 204.51 141.48 207.56 141.49 210.62 141.49 C 210.53 137.33 210.91 133.14 210.31 129.01 C 209.06 124.18 203.54 122.09 198.99 122.42 C 193.93 122.07 189.03 124.35 185.49 127.87 C 185.23 126.12 184.91 124.39 184.58 122.66 C 181.86 122.69 179.13 122.68 176.41 122.64 C 175.17 128.84 176.01 135.17 175.66 141.44 Z" />
<path fill="#ffffff" opacity="1.00" d=" M 47.40 114.16 C 53.20 113.39 59.03 113.82 64.81 114.48 C 64.80 115.04 64.77 116.17 64.76 116.73 C 59.00 117.50 53.17 117.50 47.41 116.81 C 47.41 116.15 47.41 114.82 47.40 114.16 Z" />
<path fill="#ffffff" opacity="1.00" d=" M 47.36 120.37 C 53.83 120.29 60.31 120.21 66.78 120.44 C 66.64 121.44 66.50 122.45 66.37 123.46 C 60.04 123.62 53.71 123.57 47.38 123.56 C 47.38 122.50 47.37 121.43 47.36 120.37 Z" />
<path fill="#ffffff" opacity="1.00" d=" M 146.85 130.05 C 150.15 127.80 154.29 128.40 158.05 128.42 C 160.18 128.27 161.90 129.63 163.66 130.59 C 163.61 131.50 163.51 133.34 163.46 134.26 C 158.81 136.87 152.70 137.38 147.90 134.93 C 145.86 134.29 146.08 131.60 146.85 130.05 Z" />
</g>
<g id="#cefc51ff">
<path fill="#cefc51" opacity="1.00" d=" M 111.34 8.07 C 128.68 6.35 146.49 8.03 162.91 14.03 C 190.43 23.55 213.89 44.01 227.40 69.76 C 233.25 81.45 238.04 93.98 239.50 107.04 C 239.95 119.20 240.20 131.44 239.25 143.58 C 235.84 163.28 227.42 182.21 214.68 197.67 C 196.87 219.71 170.81 234.97 142.77 239.27 C 132.54 240.21 122.23 239.81 111.97 239.74 C 101.88 239.81 92.16 236.66 82.80 233.21 C 56.52 223.49 34.21 203.68 21.06 178.98 C 4.99 148.91 2.89 111.72 15.97 80.18 C 28.26 49.38 54.42 24.44 85.87 13.86 C 94.09 10.91 102.68 9.12 111.34 8.07 M 116.34 20.86 C 110.80 21.57 105.24 22.24 99.80 23.56 C 76.71 28.84 55.87 42.78 41.67 61.67 C 27.00 80.37 19.93 104.40 20.56 128.03 C 21.24 137.07 22.58 146.09 25.22 154.77 C 32.45 178.76 49.18 199.33 70.29 212.57 C 89.92 224.34 113.48 229.73 136.25 226.94 C 155.78 224.42 174.78 216.59 189.90 203.89 C 199.16 195.77 207.72 186.60 213.78 175.81 C 227.39 152.24 231.37 123.23 223.99 96.98 C 214.41 60.71 183.52 30.89 146.73 23.18 C 136.75 21.27 126.52 19.68 116.34 20.86 Z" />
<path fill="#cefc51" opacity="1.00" d=" M 37.71 106.45 C 46.83 106.44 55.95 106.38 65.07 106.45 C 69.08 106.56 74.11 107.17 76.04 111.27 C 77.56 114.24 74.24 116.36 72.60 118.38 C 74.32 119.47 76.02 120.59 77.72 121.71 C 77.33 124.02 77.56 126.91 75.33 128.37 C 71.50 131.12 66.54 131.35 62.00 131.41 C 53.87 131.36 45.75 131.50 37.63 131.22 C 37.50 122.97 37.37 114.70 37.71 106.45 M 47.40 114.16 C 47.41 114.82 47.41 116.15 47.41 116.81 C 53.17 117.50 59.00 117.50 64.76 116.73 C 64.77 116.17 64.80 115.04 64.81 114.48 C 59.03 113.82 53.20 113.39 47.40 114.16 M 47.36 120.37 C 47.37 121.43 47.38 122.50 47.38 123.56 C 53.71 123.57 60.04 123.62 66.37 123.46 C 66.50 122.45 66.64 121.44 66.78 120.44 C 60.31 120.21 53.83 120.29 47.36 120.37 Z" />
<path fill="#cefc51" opacity="1.00" d=" M 80.81 106.44 C 93.69 106.46 106.57 106.36 119.46 106.51 C 119.46 108.94 119.48 111.38 119.54 113.82 C 111.07 114.85 102.54 114.06 94.05 114.34 C 91.99 114.09 90.94 116.15 89.56 117.29 C 86.57 117.32 83.59 117.35 80.60 117.41 C 80.57 113.75 80.67 110.10 80.81 106.44 Z" />
<path fill="#cefc51" opacity="1.00" d=" M 90.37 124.41 C 100.05 124.43 109.72 124.45 119.40 124.39 C 119.40 126.69 119.39 128.99 119.38 131.30 C 117.49 131.31 115.60 131.32 113.72 131.30 C 113.68 129.99 113.64 128.67 113.60 127.36 C 105.88 127.50 98.15 127.36 90.43 127.44 C 90.41 126.68 90.38 125.16 90.37 124.41 Z" />
</g>
<g id="#010101ff">
<path fill="#010101" opacity="1.00" d=" M 124.28 114.71 C 127.33 114.71 130.37 114.72 133.42 114.73 C 133.44 123.64 133.39 132.55 133.46 141.46 C 130.38 141.49 127.31 141.49 124.23 141.49 C 124.28 132.56 124.19 123.63 124.28 114.71 Z" />
<path fill="#010101" opacity="1.00" d=" M 80.60 117.41 C 83.59 117.35 86.57 117.32 89.56 117.29 C 99.52 117.32 109.48 117.25 119.44 117.36 C 119.41 119.70 119.39 122.05 119.40 124.39 C 109.72 124.45 100.05 124.43 90.37 124.41 C 90.38 125.16 90.41 126.68 90.43 127.44 C 98.15 127.36 105.88 127.50 113.60 127.36 C 113.64 128.67 113.68 129.99 113.72 131.30 C 105.91 131.20 98.10 131.23 90.29 131.30 C 90.36 132.34 90.42 133.39 90.49 134.45 C 100.13 134.40 109.77 134.41 119.41 134.45 C 119.41 136.78 119.42 139.12 119.42 141.46 C 106.50 141.50 93.58 141.53 80.66 141.44 C 80.68 133.43 80.69 125.42 80.60 117.41 Z" />
<path fill="#010101" opacity="1.00" d=" M 145.33 123.26 C 150.44 121.91 155.84 122.49 161.07 122.57 C 165.44 123.10 170.61 124.56 172.51 128.98 C 173.10 132.71 173.16 137.32 169.40 139.40 C 164.04 142.02 157.84 142.62 151.95 142.28 C 146.90 141.48 140.70 141.21 137.65 136.41 C 137.19 133.07 136.36 128.78 139.31 126.32 C 140.89 124.63 143.16 123.88 145.33 123.26 M 146.85 130.05 C 146.08 131.60 145.86 134.29 147.90 134.93 C 152.70 137.38 158.81 136.87 163.46 134.26 C 163.51 133.34 163.61 131.50 163.66 130.59 C 161.90 129.63 160.18 128.27 158.05 128.42 C 154.29 128.40 150.15 127.80 146.85 130.05 Z" />
<path fill="#010101" opacity="1.00" d=" M 175.66 141.44 C 176.01 135.17 175.17 128.84 176.41 122.64 C 179.13 122.68 181.86 122.69 184.58 122.66 C 184.91 124.39 185.23 126.12 185.49 127.87 C 189.03 124.35 193.93 122.07 198.99 122.42 C 203.54 122.09 209.06 124.18 210.31 129.01 C 210.91 133.14 210.53 137.33 210.62 141.49 C 207.56 141.49 204.51 141.48 201.45 141.49 C 201.47 137.90 201.48 134.32 201.41 130.73 C 196.84 126.76 190.36 128.71 185.33 130.67 C 185.22 134.26 185.25 137.86 185.29 141.45 C 182.08 141.50 178.87 141.51 175.66 141.44 Z" />
</g>
</svg>

<?xml version="1.0" encoding="utf-8"?>
<!-- Generator: Adobe Illustrator 26.0.3, SVG Export Plug-In . SVG Version: 6.00 Build 0)  -->
<svg version="1.1" id="Layer_1" xmlns="http://www.w3.org/2000/svg" xmlns:xlink="http://www.w3.org/1999/xlink" x="0px" y="0px"
	 viewBox="0 0 250 250" style="enable-background:new 0 0 250 250;" xml:space="preserve">
<style type="text/css">
	.st0{fill:#FFFFFF;}
	.st1{fill:#CEFC51;}
	.st2{fill:#010101;}
</style>
<g id="_x23_ffffffff">
	<path class="st0" d="M116.3,20.9c10.2-1.2,20.4,0.4,30.4,2.3c36.8,7.7,67.7,37.5,77.3,73.8c7.4,26.2,3.4,55.3-10.2,78.8
		c-6.1,10.8-14.6,20-23.9,28.1c-15.1,12.7-34.1,20.5-53.6,23.1c-22.8,2.8-46.3-2.6-66-14.4c-21.1-13.2-37.8-33.8-45.1-57.8
		c-2.6-8.7-4-17.7-4.7-26.7c-0.6-23.6,6.4-47.7,21.1-66.4c14.2-18.9,35-32.8,58.1-38.1C105.2,22.2,110.8,21.6,116.3,20.9
		 M37.7,106.4c-0.3,8.2-0.2,16.5-0.1,24.8c8.1,0.3,16.2,0.1,24.4,0.2c4.5-0.1,9.5-0.3,13.3-3c2.2-1.5,2-4.3,2.4-6.7
		c-1.7-1.1-3.4-2.2-5.1-3.3c1.6-2,5-4.1,3.4-7.1c-1.9-4.1-7-4.7-11-4.8C56,106.4,46.8,106.4,37.7,106.4 M80.8,106.4
		c-0.1,3.7-0.2,7.3-0.2,11c0.1,8,0.1,16,0.1,24c12.9,0.1,25.8,0.1,38.8,0c0-2.3,0-4.7,0-7c-9.6,0-19.3-0.1-28.9,0
		c-0.1-1.1-0.1-2.1-0.2-3.1c7.8-0.1,15.6-0.1,23.4,0c1.9,0,3.8,0,5.7,0c0-2.3,0-4.6,0-6.9c0-2.3,0-4.7,0-7c-10-0.1-19.9,0-29.9-0.1
		c1.4-1.1,2.4-3.2,4.5-3c8.5-0.3,17,0.5,25.5-0.5c-0.1-2.4-0.1-4.9-0.1-7.3C106.6,106.4,93.7,106.5,80.8,106.4 M124.3,114.7
		c-0.1,8.9,0,17.8,0,26.8c3.1,0,6.2,0,9.2,0c-0.1-8.9,0-17.8,0-26.7C130.4,114.7,127.3,114.7,124.3,114.7 M145.3,123.3
		c-2.2,0.6-4.4,1.4-6,3.1c-2.9,2.5-2.1,6.8-1.7,10.1c3.1,4.8,9.2,5.1,14.3,5.9c5.9,0.3,12.1-0.3,17.4-2.9c3.8-2.1,3.7-6.7,3.1-10.4
		c-1.9-4.4-7.1-5.9-11.4-6.4C155.8,122.5,150.4,121.9,145.3,123.3 M175.7,141.4c3.2,0.1,6.4,0.1,9.6,0c0-3.6-0.1-7.2,0-10.8
		c5-2,11.5-3.9,16.1,0.1c0.1,3.6,0.1,7.2,0,10.8c3.1,0,6.1,0,9.2,0c-0.1-4.2,0.3-8.4-0.3-12.5c-1.2-4.8-6.8-6.9-11.3-6.6
		c-5.1-0.3-10,1.9-13.5,5.5c-0.3-1.8-0.6-3.5-0.9-5.2c-2.7,0-5.4,0-8.2,0C175.2,128.8,176,135.2,175.7,141.4z"/>
	<path class="st0" d="M47.4,114.2c5.8-0.8,11.6-0.3,17.4,0.3c0,0.6,0,1.7,0,2.2c-5.8,0.8-11.6,0.8-17.4,0.1
		C47.4,116.2,47.4,114.8,47.4,114.2z"/>
	<path class="st0" d="M47.4,120.4c6.5-0.1,13-0.2,19.4,0.1c-0.1,1-0.3,2-0.4,3c-6.3,0.2-12.7,0.1-19,0.1
		C47.4,122.5,47.4,121.4,47.4,120.4z"/>
	<path class="st0" d="M146.9,130.1c3.3-2.2,7.4-1.7,11.2-1.6c2.1-0.1,3.8,1.2,5.6,2.2c-0.1,0.9-0.2,2.8-0.2,3.7
		c-4.7,2.6-10.8,3.1-15.6,0.7C145.9,134.3,146.1,131.6,146.9,130.1z"/>
</g>
<g id="_x23_cefc51ff">
	<path class="st1" d="M111.3,8.1c17.3-1.7,35.2,0,51.6,6c27.5,9.5,51,30,64.5,55.7C233.2,81.4,238,94,239.5,107
		c0.4,12.2,0.7,24.4-0.2,36.5c-3.4,19.7-11.8,38.6-24.6,54.1c-17.8,22-43.9,37.3-71.9,41.6c-10.2,0.9-20.5,0.5-30.8,0.5
		c-10.1,0.1-19.8-3.1-29.2-6.5c-26.3-9.7-48.6-29.5-61.7-54.2C5,148.9,2.9,111.7,16,80.2c12.3-30.8,38.4-55.7,69.9-66.3
		C94.1,10.9,102.7,9.1,111.3,8.1 M116.3,20.9c-5.5,0.7-11.1,1.4-16.5,2.7c-23.1,5.3-43.9,19.2-58.1,38.1
		C27,80.4,19.9,104.4,20.6,128c0.7,9,2,18.1,4.7,26.7c7.2,24,24,44.6,45.1,57.8c19.6,11.8,43.2,17.2,66,14.4
		c19.5-2.5,38.5-10.4,53.6-23.1c9.3-8.1,17.8-17.3,23.9-28.1c13.6-23.6,17.6-52.6,10.2-78.8c-9.6-36.3-40.5-66.1-77.3-73.8
		C136.8,21.3,126.5,19.7,116.3,20.9z"/>
	<path class="st1" d="M37.7,106.4c9.1,0,18.2-0.1,27.4,0c4,0.1,9,0.7,11,4.8c1.5,3-1.8,5.1-3.4,7.1c1.7,1.1,3.4,2.2,5.1,3.3
		c-0.4,2.3-0.2,5.2-2.4,6.7c-3.8,2.8-8.8,3-13.3,3c-8.1-0.1-16.2,0.1-24.4-0.2C37.5,123,37.4,114.7,37.7,106.4 M47.4,114.2
		c0,0.7,0,2,0,2.6c5.8,0.7,11.6,0.7,17.4-0.1c0-0.6,0-1.7,0-2.2C59,113.8,53.2,113.4,47.4,114.2 M47.4,120.4c0,1.1,0,2.1,0,3.2
		c6.3,0,12.7,0.1,19-0.1c0.1-1,0.3-2,0.4-3C60.3,120.2,53.8,120.3,47.4,120.4z"/>
	<path class="st1" d="M80.8,106.4c12.9,0,25.8-0.1,38.7,0.1c0,2.4,0,4.9,0.1,7.3c-8.5,1-17,0.2-25.5,0.5c-2.1-0.2-3.1,1.8-4.5,3
		c-3,0-6,0.1-9,0.1C80.6,113.8,80.7,110.1,80.8,106.4z"/>
	<path class="st1" d="M90.4,124.4c9.7,0,19.3,0,29,0c0,2.3,0,4.6,0,6.9c-1.9,0-3.8,0-5.7,0c0-1.3-0.1-2.6-0.1-3.9
		c-7.7,0.1-15.4,0-23.2,0.1C90.4,126.7,90.4,125.2,90.4,124.4z"/>
</g>
<g id="_x23_010101ff">
	<path class="st2" d="M124.3,114.7c3.1,0,6.1,0,9.1,0c0,8.9,0,17.8,0,26.7c-3.1,0-6.2,0-9.2,0C124.3,132.6,124.2,123.6,124.3,114.7z
		"/>
	<path class="st2" d="M80.6,117.4c3-0.1,6-0.1,9-0.1c10,0,19.9,0,29.9,0.1c0,2.3-0.1,4.7,0,7c-9.7,0.1-19.3,0-29,0
		c0,0.8,0,2.3,0.1,3c7.7-0.1,15.4,0.1,23.2-0.1c0,1.3,0.1,2.6,0.1,3.9c-7.8-0.1-15.6-0.1-23.4,0c0.1,1,0.1,2.1,0.2,3.1
		c9.6-0.1,19.3,0,28.9,0c0,2.3,0,4.7,0,7c-12.9,0-25.8,0.1-38.8,0C80.7,133.4,80.7,125.4,80.6,117.4z"/>
	<path class="st2" d="M145.3,123.3c5.1-1.3,10.5-0.8,15.7-0.7c4.4,0.5,9.5,2,11.4,6.4c0.6,3.7,0.7,8.3-3.1,10.4
		c-5.4,2.6-11.6,3.2-17.4,2.9c-5.1-0.8-11.2-1.1-14.3-5.9c-0.5-3.3-1.3-7.6,1.7-10.1C140.9,124.6,143.2,123.9,145.3,123.3
		 M146.9,130.1c-0.8,1.6-1,4.2,1,4.9c4.8,2.5,10.9,1.9,15.6-0.7c0-0.9,0.1-2.8,0.2-3.7c-1.8-1-3.5-2.3-5.6-2.2
		C154.3,128.4,150.1,127.8,146.9,130.1z"/>
	<path class="st2" d="M175.7,141.4c0.3-6.3-0.5-12.6,0.8-18.8c2.7,0,5.4,0.1,8.2,0c0.3,1.7,0.6,3.5,0.9,5.2
		c3.5-3.5,8.4-5.8,13.5-5.5c4.5-0.3,10.1,1.8,11.3,6.6c0.6,4.1,0.2,8.3,0.3,12.5c-3.1,0-6.1,0-9.2,0c0-3.6,0-7.2,0-10.8
		c-4.6-4-11.1-2-16.1-0.1c-0.1,3.6-0.1,7.2,0,10.8C182.1,141.5,178.9,141.5,175.7,141.4z"/>
</g>
</svg>
